icons/folder-open.svg

<?xml version="1.0" standalone="no"?><!-- Generator: Gravit.io --><svg xmlns="http://www.w3.org/2000/svg" xmlns:xlink="http://www.w3.org/1999/xlink" width="96" height="96"><path d=" M 5.00037447396 39.98773597777 C 4.801330294950808 40.878938716465015 4.7 41.78946935823251 4.7 42.7 Q 4.7 42.8 4.9 44.5 L 11.2 73 C 12.1 77.1 15.8 80 20 80 L 76 80 C 80.2 80 83.9 77.1 84.8 73 L 91.1 44.5 Q 91.3 42.8 91.3 42.7 C 91.3 39.7 90.2 36.7 88.1 34.4 C 88.1 34.4 88 34.4 88 34.3 L 83.8 30.1 C 82.9 26.5 79.7 24 76 24 L 44 24 C 43.1 24 42.2 23.5 41.8 22.6 L 41.4 21.8 C 39.6 18.2 36 16 32 16 L 20 16 C 17.9 16 15.8 16.8 14.3 18.3 C 12.8 19.8 12 21.9 12 24 L 12 30.3 L 8 34.3 L 8 34.3 C 8 34.4 7.9 34.4 7.9 34.4 C 7.000042256846085 35.38566800440667 6.283740735792554 36.4998953642836 5.75813031161 37.6873493567 C 5.251523714622097 38.32290229705095 5.002370005052172 39.1241933194221 5.00037447396 39.98773597777 Z  M 12.95555555556 44 L 12.95555555556 44 L 19 71.2 C 19.1 71.7 19.5 72 20 72 L 76 72 C 76.5 72 76.9 71.7 77 71.2 L 83.04444444444 44 L 12.95555555556 44 Z  M 17.7 36 L 20 33.7 L 20 24 L 32 24 C 32.9 24 33.8 24.5 34.2 25.4 L 34.6 26.2 C 36.4 29.8 40 32 44 32 L 76 32 L 77.2 34.8 L 78.37692307692 36 L 17.7 36 Z " fill-rule="evenodd" fill="#454545" stroke="none"/><mask id="_mask_2lBc7MXadlnqD60QyCF3DwZkjsJ4f5ZH"><path d=" M 5.00037447396 39.98773597777 C 4.801330294950808 40.878938716465015 4.7 41.78946935823251 4.7 42.7 Q 4.7 42.8 4.9 44.5 L 11.2 73 C 12.1 77.1 15.8 80 20 80 L 76 80 C 80.2 80 83.9 77.1 84.8 73 L 91.1 44.5 Q 91.3 42.8 91.3 42.7 C 91.3 39.7 90.2 36.7 88.1 34.4 C 88.1 34.4 88 34.4 88 34.3 L 83.8 30.1 C 82.9 26.5 79.7 24 76 24 L 44 24 C 43.1 24 42.2 23.5 41.8 22.6 L 41.4 21.8 C 39.6 18.2 36 16 32 16 L 20 16 C 17.9 16 15.8 16.8 14.3 18.3 C 12.8 19.8 12 21.9 12 24 L 12 30.3 L 8 34.3 L 8 34.3 C 8 34.4 7.9 34.4 7.9 34.4 C 7.000042256846085 35.38566800440667 6.283740735792554 36.4998953642836 5.75813031161 37.6873493567 C 5.251523714622097 38.32290229705095 5.002370005052172 39.1241933194221 5.00037447396 39.98773597777 Z  M 12.95555555556 44 L 12.95555555556 44 L 19 71.2 C 19.1 71.7 19.5 72 20 72 L 76 72 C 76.5 72 76.9 71.7 77 71.2 L 83.04444444444 44 L 12.95555555556 44 Z  M 17.7 36 L 20 33.7 L 20 24 L 32 24 C 32.9 24 33.8 24.5 34.2 25.4 L 34.6 26.2 C 36.4 29.8 40 32 44 32 L 76 32 L 77.2 34.8 L 78.37692307692 36 L 17.7 36 Z " fill-rule="evenodd" fill="white" stroke="none"/></mask><path d=" M 5.00037447396 39.98773597777 C 4.801330294950808 40.878938716465015 4.7 41.78946935823251 4.7 42.7 Q 4.7 42.8 4.9 44.5 L 11.2 73 C 12.1 77.1 15.8 80 20 80 L 76 80 C 80.2 80 83.9 77.1 84.8 73 L 91.1 44.5 Q 91.3 42.8 91.3 42.7 C 91.3 39.7 90.2 36.7 88.1 34.4 C 88.1 34.4 88 34.4 88 34.3 L 83.8 30.1 C 82.9 26.5 79.7 24 76 24 L 44 24 C 43.1 24 42.2 23.5 41.8 22.6 L 41.4 21.8 C 39.6 18.2 36 16 32 16 L 20 16 C 17.9 16 15.8 16.8 14.3 18.3 C 12.8 19.8 12 21.9 12 24 L 12 30.3 L 8 34.3 L 8 34.3 C 8 34.4 7.9 34.4 7.9 34.4 C 7.000042256846085 35.38566800440667 6.283740735792554 36.4998953642836 5.75813031161 37.6873493567 C 5.251523714622097 38.32290229705095 5.002370005052172 39.1241933194221 5.00037447396 39.98773597777 Z  M 12.95555555556 44 L 12.95555555556 44 L 19 71.2 C 19.1 71.7 19.5 72 20 72 L 76 72 C 76.5 72 76.9 71.7 77 71.2 L 83.04444444444 44 L 12.95555555556 44 Z  M 17.7 36 L 20 33.7 L 20 24 L 32 24 C 32.9 24 33.8 24.5 34.2 25.4 L 34.6 26.2 C 36.4 29.8 40 32 44 32 L 76 32 L 77.2 34.8 L 78.37692307692 36 L 17.7 36 Z " fill-rule="evenodd" fill="none" stroke="none" stroke-width="16" mask="url(#_mask_2lBc7MXadlnqD60QyCF3DwZkjsJ4f5ZH)"/></svg>

<svg xmlns="http://www.w3.org/2000/svg" width="96" height="96"><path d="M5 39.988a12.45 12.45 0 0 0-.3 2.712q0 .1.2 1.8L11.2 73c.9 4.1 4.6 7 8.8 7h56c4.2 0 7.9-2.9 8.8-7l6.3-28.5q.2-1.7.2-1.8c0-3-1.1-6-3.2-8.3 0 0-.1 0-.1-.1l-4.2-4.2c-.9-3.6-4.1-6.1-7.8-6.1H44c-.9 0-1.8-.5-2.2-1.4l-.4-.8C39.6 18.2 36 16 32 16H20c-2.1 0-4.2.8-5.7 2.3-1.5 1.5-2.3 3.6-2.3 5.7v6.3l-4 4c0 .1-.1.1-.1.1-.9.986-1.616 2.1-2.142 3.287-.506.636-.756 1.437-.758 2.3zM12.956 44L19 71.2c.1.5.5.8 1 .8h56c.5 0 .9-.3 1-.8L83.044 44H12.956zm4.744-8l2.3-2.3V24h12c.9 0 1.8.5 2.2 1.4l.4.8C36.4 29.8 40 32 44 32h32l1.2 2.8 1.177 1.2H17.7z" fill-rule="evenodd" fill="#454545"/></svg>
